X:12593
%15784
T:Spaghetti Panic
M:7/8
L:1/8
Q:1/4=220
C:Andy Cutting
R:reel (?)
D:Niall Keegan: Don't Touch the Elk
Z:Devin McCabe
K:Cmaj
EAE BEcz | cBA B^GEA | AGE EDCE | ~D3E DCD |

%Error : '!' or '+' in middle of line ignored
E2A BE cz | cBA B^GEA | AGE EDCE | DCB, C2A,2 :|

%Error : '!' or '+' in middle of line ignored

%Error : Malformed note : expecting a-g or A-G

%Error : Single colon in bar

%Error : Unrecognized character: 8

%Error : stray / not in grace sequence

%Error : Unrecognized character: 8

%Error : Malformed note : expecting a-g or A-G

%Error : Single colon in bar

%Error : Unrecognized character: 1

%Error : stray / not in grace sequence

%Error : Unrecognized character: 8
|: A,B,C E2 EFE 
